X: 25
T: MEDLEY: Ash Grove Set
T: Ash Grove [Mazurka]
C: C: Trad. / Turlough O'Carolan; S: Síle Friel & Ryan Molloy; Tommy Reck / Planxty
C: Set Leaders: Alexey, Sophie, Anton
Z: Anton Zille ed. arr.; ceolachan / Shablabar at The Session
N: https://thesession.org/members/26966/sets/99352
R: Mazurka
M: 3/4
L: 1/8
Q: 1/4=136
K: Gmaj
|:D2|"G"G2 B2 d2|"Em"B2 G2 E2|"C"AB cB AG|"D"BA GF ED|
"G (Em)"G2 BG AF|"C"G2 E2 G2|"D"D2 E2 F2|"G"G4:||
|:D/E/F|"G"G2 B2 d/e/f|"Em"g2 d2 B2|"C"AG AB cd|"D"e2 c2 A2|
"G"GF GA Bc|"Em"d2 B2 G2|"D"A2 d2 "A"^c2|"D"d3 B cA|
"Em"B2 G2 E2|"C"E2 F2 G2|"Am"AB cB AG|"D"BA GF ED|
"G (Em)"G2 BG "D"AF|"C"G2 E2 G2|"D"D2 E2 F2|"G"G4:||
T: Planxty Irwin [Air]
R: Air
Q: 1/4=144
K: Gmaj
d2|:g4 f2|e3f g2|d4 c2|B3A G2|
c4 A2|B3c d2|F4 G2|A4 d2|
g4 f2|e3f g2|d4 c2|B3A G2|
c4 A2|B3c d2|G2 A2 F2|G4 d2:||
|:g4 g2|g3f g2|a3b a2|a3f d2|
b4 b2|a3b g2|f3g e2|d2 e2 f2|
g4 f2|e3f g2|d4 c2|B3A G2|
c4 A2|B3c d2|G2 A2 F2|1 G4 d2:|2 G6||

